X: 11528
T: Eddie Moloney's Favourite
R: reel
M: 4/4
K: Edorian
B2GB EBGB|BAFA DAFA|B2GB EFGA|(3Bcd ed Bded|
~B2BB dBGB|A2FA dAFA|BEED EFGA|Bded Bdef||
~g2gf gfed|ABBA Bdef|gbef fefd|BdAd BEEB|
~g2gf gfed|~B2AB GBAF|~E2EF GFGA|(3Bcded BdAd||

